!!!COM: Richard Strauss
!!!CNT: Deutscher
!!!TXO: Deutsche 
!!!OTL: "Ach weh mir unglu2ckhaftem Mann"
!!!OPS: Opus 21
!!!ONM: No. 4
!!!LYR: Felix Dahn
!!!ENC: Brian Bice
!!!YOR: Lieder, Complete Edition, vol. 1
!!!ODT: 1888/
!!NB: Vocal melody and text only encoded.
**kern	**silbe
*clefG2	*
*k[f#]	*
*M3/4	*
=1	=1
8r	.
{8dd	{Ach
4.ee-	weh
8dd	mir
=2	=2
8cc	un-
8b-	-glu2ck-
8a-	-haf-
8g	-tem
4f#}	Mann,}
=3	=3
8r	.
{16f#	{dass
16f#	ich
4g	Geld
8r	.
8a	und
=4	=4
2b-	Gut
8r	.
8b-	nicht
=5	=5
*M2/4	*
4b-	ha-
8c#}	-be,}
8r	.
=8	=8
4r	.
8r	.
{(cc#q	{sonst
8ee)	|
=9	=9
8a	spannt
8a	ich
8a	gleich
8b	vier
=10	=10
8.cc#	Schim-
16dd	-mel
16ee}	an}
{16cc#	{und
16ee	fu2hr'
16ff	zu
=11	=11
8.gg	dir,
16b	zu
8ee	dir
8dd	im
=12	=12
8dd	Tra-
8g}	-be.}
4r	.
=13	=13
4r	.
8r	.
{8b	{Ich
=14	=14
8a	putz-
8a	-te
8a	sie
8b	mit
=15	=15
(16dd	Schel-
16cc)	|
(16b	-len
16cc)	|
4a}	aus,}
=16	=16
{16b	{dass
16b	du
8cc	mich
8dd	ho2rt'st
8ee	von
=17	=17
(8.dd	Wei-
16gg)	|
8dd}	-tem,}
{8b	{ich
=18	=18
8a	steckt'
8a	ein'n
8a	gro-
8b	-ssen
=19	=19
(16dd	Ro-
16cc)	|
(16b	-sen-
16cc)	|
4a}	-strauss}
=20	=20
{8b	{an
16dd	mei-
16dd	-ne
8ff#	lin-
8cc#	-ke
=21	=21
(8.dd	Sei-
16a)	|
8d}	-ten,}
{8d	{und
=22	=22
8d	ka2m
8e	ich
8f#	an
8g	dein
=23	=23
*M3/4	*
4a	klei-
4b	-nes
4cc}	Haus,}
=24	=24
*M2/4	*
{16a	{ta2t
16a	ich
16a	mit
16b	der
8cc	Peit-
8ee	-sche
=25	=25
4aa	schla-
8a}	-gen,}
8r	.
=28	=28
8r	.
{8ee	{da
8ee	guck-
8dd	-test
=29	=29
8cc	du
8b	zum
8a	Fen-
8g	-ster
=30	=30
8.f#}	'naus:}
{16ff#	{was
8ff#	willst
8b	du?
=31	=31
8r	.
16ddn	ta2t'st
16ddn	du
8ddn	fra-
8d}	-gen.}
=32	=32
8r	.
{8ff#	{Was
8ff#	soll
8b	der
=33	=33
8cc	gro-
8cc	-sse
8.dd	Ro-
16ee	-sen-
=34	=34
8b}	-strauss,}
{8ff#	{die
16ff#	Schim-
16b	-mel
8r	.
=35	=35
8r	.
16cc	an
16cc	dem
8dd	Wa-
8ee}	-gen?}
=38	=38
{4aa	{Dich
8gg	will
8ee	ich,
=39	=39
16r	.
8dd	rief
16a	ich,
8r	.
16a.	komm
32a#	her-
=40	=40
4b}	-aus!}
8r	.
{8b	{da
=41	=41
8b	ta2t'st
8b	du
8dd#	nim-
8cc#	-mer
=42	=42
([2b	fra-
=43	=43
*M3/4	*
4b]	|
4a#)	|
4an}	-gen.}
=44	=44
*M2/4	*
8r	.
{8g#	{Nun,
16cc#	Va-
16b	-ter,
8r	.
=45	=45
16r	.
8a#	Mut-
16f#	-ter,
8r	.
16.ff#	seht
32ff#	sie
=46	=46
4.ee}	an}
{(8dd#	{und
=47	=47
8cc#	ku2sst
8b	sie
8a#	rasch
8an)	zum
=48	=48
*M3/4	*
(4a	Schei-
4a-)	|
4g}	-den,}
=49	=49
*M2/4	*
4r	.
8r	.
{(cc#q	{weil
8ee)	|
=50	=50
8a	ich
8a	nicht
8a	lan-
8b	-ge
=51	=51
4cc#	war-
4dd	-ten
=52	=52
4ee}	kann,}
8r	.
{16gg	{mei-
16ee	-ne
=53	=53
8dd	Schim-
8b	-mel
8a	woll'ns
8dd	nicht
=54	=54
(8.g	lei-
16b	|
8.a	|
16ee	|
=55	=55
8.dd	|
16ee	|
8.dd	|
16ee	|
=56	=56
16dd	|
16a	|
16f#	|
16a	|
8d)}	-den.}
8r	.
=61	=61
*M3/4	*
8r	.
{8dd	{Ach
4.ee-	weh
8dd	mir
=62	=62
8cc	un-
8b-	-glu2ck-
8a-	-haf-
8g	-tem
4f#}	Mann,}
=63	=63
8r	.
{16f#	{dass
16f#	ich
4g	Geld
8r	.
8a	und
=64	=64
4.b-	Gut
8r	.
8.a	nicht
16r	.
=65	=65
4.g}	hab'.}
8r	.
*-	*-
